img/house__icon-toys.svg

<svg xmlns="http://www.w3.org/2000/svg" viewBox="0 0 60 59.62"><path d="M0 43.68l27.44 15.93V36.27L0 20.33zm51.35-31.24v2.45c0 1.82-3.46 3.29-7.73 3.29s-7.73-1.47-7.73-3.29v-4.06c.26 1.72 3.61 3.07 7.71 3.07 4.27 0 7.73-1.47 7.73-3.28s-3.46-3.29-7.73-3.29h-1l-5-2.89v3.12c0 1.82-3.46 3.29-7.72 3.29a12.61 12.61 0 0 1-6.44-1.47 4.16 4.16 0 0 0-.73-.59 1.79 1.79 0 0 1-.56-1.23v-3l-4.77 2.8h-1.05c-4.27 0-7.73 1.47-7.73 3.29s3.46 3.28 7.73 3.28c4.09 0 7.44-1.35 7.7-3.07v4.06c0 1.82-3.45 3.29-7.72 3.29s-7.71-1.5-7.71-3.32v-2.42l-5.95 3.45 27.53 16L57.53 16zM37.7 22.6c0 1.82-3.46 3.29-7.72 3.29s-7.73-1.47-7.73-3.29v-4.06c.26 1.72 3.6 3.08 7.71 3.08s7.44-1.36 7.7-3.08v4.06zm-5.14 13.88v23.14L60 43.68V20.54zM29.92 6.57c4.26 0 7.72-1.47 7.72-3.28S34.18 0 29.92 0s-7.73 1.47-7.73 3.29 3.46 3.28 7.73 3.28" fill="#149080"/></svg>

<svg xmlns="http://www.w3.org/2000/svg" viewBox="0 0 60 59.62"><title>house__icon-toys</title><path d="M0,43.68,27.44,59.61V36.27L0,20.33ZM51.35,12.44v2.45c0,1.82-3.46,3.29-7.73,3.29s-7.73-1.47-7.73-3.29V10.83h0c.26,1.72,3.61,3.07,7.71,3.07,4.27,0,7.73-1.47,7.73-3.28s-3.46-3.29-7.73-3.29c-.34,0-.68,0-1,0l-5-2.89V7.56c0,1.82-3.46,3.29-7.72,3.29a12.61,12.61,0,0,1-6.44-1.47,4.16,4.16,0,0,0-.73-.59,1.79,1.79,0,0,1-.56-1.23v-3L17.38,7.36l-1.05,0c-4.27,0-7.73,1.47-7.73,3.29s3.46,3.28,7.73,3.28c4.09,0,7.44-1.35,7.7-3.07h0v4.06c0,1.82-3.45,3.29-7.72,3.29S8.6,16.71,8.6,14.89V12.47L2.65,15.92l27.53,16L57.53,16ZM37.7,22.6c0,1.82-3.46,3.29-7.72,3.29s-7.73-1.47-7.73-3.29V18.54h0c.26,1.72,3.6,3.08,7.71,3.08s7.44-1.36,7.7-3.08h0V22.6ZM32.56,36.48V59.62L60,43.68V20.54ZM29.92,6.57c4.26,0,7.72-1.47,7.72-3.28S34.18,0,29.92,0s-7.73,1.47-7.73,3.29,3.46,3.28,7.73,3.28" style="fill:#149080"/></svg>
